src/img/icons/icon-arrow-link.svg

<svg width="10" height="9" viewBox="0 0 10 9" fill="none">
<path fill-rule="evenodd" clip-rule="evenodd" d="M9.83633 4.62446L6.22698 1.15156C6.12399 1.05248 5.98666 0.997304 5.84017 0.997304C5.69357 0.997304 5.55636 1.05248 5.45336 1.15156L5.1256 1.46691C5.02272 1.56558 4.96596 1.69809 4.96596 1.83905C4.96596 1.98042 5.02272 2.11694 5.1256 2.21562L7.23132 4.24668H0.54156C0.23989 4.24668 0.00163 4.47302 0.00163 4.76341V5.20965C0.00163 5.49963 0.23989 5.75014 0.54156 5.75014H7.25512L5.12572 7.79207C5.02272 7.89075 4.96607 8.01963 4.96607 8.16059C4.96607 8.30074 5.02272 8.43164 5.12572 8.53072L5.45348 8.84526C5.55647 8.94434 5.69369 8.9983 5.84029 8.9983C5.98666 8.9983 6.12399 8.94354 6.22698 8.84446L9.83633 5.37156C9.93967 5.27248 9.99644 5.13958 9.99609 4.99821C9.99644 4.85685 9.93967 4.72394 9.83633 4.62446Z" fill="#FE3E57"/>
</svg>

<svg width="10" height="9" fill="none"><path fill-rule="evenodd" clip-rule="evenodd" d="M9.836 4.624L6.227 1.152A.555.555 0 005.84.997a.555.555 0 00-.387.155l-.327.315a.522.522 0 000 .749l2.105 2.03H.541a.523.523 0 00-.54.517v.447c0 .29.239.54.54.54h6.714l-2.13 2.042a.504.504 0 000 .739l.328.314c.103.1.24.153.387.153a.554.554 0 00.387-.154l3.61-3.472a.514.514 0 000-.747z" fill="#FE3E57"/></svg>
